public/card.svg

<svg width="56" height="74" viewBox="0 0 56 74" fill="none" xmlns="http://www.w3.org/2000/svg">
<path fill-rule="evenodd" clip-rule="evenodd" d="M0.486481 69.6817C0.460981 70.0001 0.516875 70.3196 0.648956 70.6104C0.781038 70.9011 0.984967 71.1535 1.24149 71.3437L3.26944 72.5117C3.00816 72.3262 2.80061 72.0747 2.668 71.783C2.53539 71.4912 2.48244 71.1696 2.51443 70.8507V33.9077C2.55763 33.0148 2.81368 32.145 3.26126 31.3711C3.70884 30.5972 4.33498 29.9415 5.08743 29.4587L52.6275 2.00869C52.8889 1.82356 53.1941 1.7099 53.513 1.67885C53.8318 1.64781 54.1532 1.70047 54.4455 1.83168L52.4174 0.66274C52.1255 0.530713 51.8041 0.477566 51.4853 0.508626C51.1664 0.539685 50.8613 0.653805 50.6004 0.839681L3.05948 28.2857C2.30909 28.7717 1.68461 29.4286 1.23734 30.2027C0.790065 30.9768 0.532764 31.8459 0.486481 32.7387V69.6817Z" fill="#035BE8"/>
<path fill-rule="evenodd" clip-rule="evenodd" d="M0.992327 69.6694C1.02133 70.3064 1.10633 70.6394 1.52333 70.9343L2.04238 71.2344C2.04238 71.1124 2.02529 70.9934 2.02529 70.8714V33.9074C2.07014 32.9311 2.34768 31.9797 2.83473 31.1324C3.32178 30.2851 4.00428 29.5665 4.82533 29.0364L52.3783 1.57839C52.4923 1.51939 52.6013 1.46438 52.7283 1.40938L52.1723 1.09334C51.7333 0.893344 51.4004 0.983379 50.8394 1.27938L3.3163 28.7164C2.63644 29.1583 2.07125 29.7553 1.66738 30.4584C1.2635 31.1615 1.03248 31.9505 0.993303 32.7604L0.992327 69.6694ZM3.27333 73.0094C3.18467 73.009 3.09752 72.9859 3.02028 72.9423L0.992327 71.7703C0.662999 71.5404 0.398629 71.2293 0.224993 70.8671C0.0513568 70.505 -0.0256155 70.1041 0.00136012 69.7034V32.7394C0.0439206 31.7626 0.320376 30.8103 0.807635 29.9626C1.29489 29.115 1.97863 28.3967 2.80129 27.8684L50.3673 0.41036C50.6971 0.185954 51.0791 0.0502342 51.4765 0.0162562C51.8739 -0.0177218 52.2733 0.0512165 52.6364 0.21639L54.6894 1.40139C54.7459 1.43172 54.796 1.47292 54.8367 1.5226C54.8774 1.57229 54.9078 1.62947 54.9264 1.69094C54.945 1.75241 54.9513 1.81698 54.945 1.88088C54.9386 1.94478 54.9196 2.00678 54.8893 2.06338C54.8276 2.17628 54.7255 2.26164 54.6034 2.30227C54.4813 2.3429 54.3484 2.33579 54.2313 2.28237C53.7723 2.05937 53.4313 2.15235 52.8613 2.44735L5.33827 29.8884C4.66012 30.3311 4.09622 30.9278 3.69252 31.6299C3.28882 32.332 3.05675 33.1196 3.01528 33.9284V70.8504C3.05728 71.4704 3.13734 71.8073 3.55934 72.1063C3.64497 72.1665 3.70933 72.2523 3.74318 72.3513C3.77703 72.4503 3.77858 72.5575 3.7477 72.6575C3.71681 72.7575 3.65511 72.8451 3.57131 72.9078C3.48751 72.9705 3.38591 73.005 3.28127 73.0064L3.27333 73.0094Z" fill="#035BE8"/>
<path fill-rule="evenodd" clip-rule="evenodd" d="M52.728 44.8215C53.4409 44.35 54.0309 43.7151 54.4489 42.9695C54.9083 42.2019 55.1638 41.3296 55.191 40.4355V3.49252C55.2572 3.17195 55.2207 2.83871 55.087 2.53994C54.9533 2.24118 54.729 1.99202 54.4459 1.82778C54.1628 1.66355 53.8352 1.59253 53.5095 1.62478C53.1838 1.65703 52.8764 1.79096 52.631 2.00753L5.09091 29.4575C4.33057 29.9288 3.70445 30.588 3.27292 31.3715C2.81057 32.1371 2.55074 33.0078 2.51792 33.9015V70.8445C2.45454 71.1658 2.4934 71.499 2.62888 71.7971C2.76435 72.0953 2.9897 72.3437 3.27341 72.5073C3.55712 72.6709 3.88496 72.7417 4.21091 72.7096C4.53685 72.6776 4.84452 72.5443 5.09091 72.3285L52.728 44.8215Z" fill="white"/>
<path fill-rule="evenodd" clip-rule="evenodd" d="M3.72022 31.5985C3.70722 31.6065 3.70719 31.6155 3.69019 31.6275C3.27645 32.3193 3.04172 33.1032 3.00721 33.9085V70.8515C2.98082 71.0837 3.01418 71.3187 3.10414 71.5343C3.19409 71.7499 3.3377 71.939 3.52125 72.0835C3.73737 72.1693 3.97194 72.1981 4.2024 72.1671C4.43286 72.1361 4.65152 72.0464 4.83729 71.9065L52.4743 44.3975C53.1143 43.971 53.6425 43.3969 54.0143 42.7235C54.4364 42.032 54.6731 41.2433 54.7013 40.4336V3.49051C54.7653 3.25898 54.7508 3.01275 54.6599 2.79037C54.5691 2.56799 54.407 2.38205 54.1992 2.26156C53.9914 2.14108 53.7495 2.09287 53.5114 2.12454C53.2732 2.1562 53.0524 2.26594 52.8833 2.43655L5.33131 29.8905C4.66096 30.3174 4.10725 30.9044 3.72022 31.5985ZM3.94325 73.1845C3.61937 73.1882 3.30044 73.1054 3.0193 72.9445C2.6822 72.716 2.41224 72.4016 2.23731 72.0338C2.06239 71.6661 1.98886 71.2582 2.0243 70.8525V33.9085C2.05367 32.9389 2.32888 31.9926 2.82423 31.1585C2.82423 31.1455 2.8412 31.1335 2.8412 31.1245C3.31843 30.2658 4.00679 29.543 4.8412 29.0245L52.3812 1.57455C52.7045 1.31657 53.098 1.16192 53.5104 1.13082C53.9228 1.09973 54.3349 1.19363 54.6931 1.40023C55.0514 1.60683 55.3392 1.91658 55.5188 2.28909C55.6984 2.66159 55.7616 3.07958 55.7002 3.48855V40.4265C55.6698 41.4089 55.3849 42.3664 54.8733 43.2055C54.4215 44.0252 53.7773 44.7229 52.9962 45.2386C52.9962 45.2386 52.9843 45.2385 52.9843 45.2465L5.33424 72.7555C4.91683 73.0184 4.43722 73.1661 3.94422 73.1836L3.94325 73.1845Z" fill="#035BE8"/>
<path fill-rule="evenodd" clip-rule="evenodd" d="M48.2231 33.3117C47.1231 32.6747 45.604 32.7677 43.914 33.7377C42.138 34.8471 40.6702 36.3861 39.6461 38.2127L39.62 38.2797C38.5241 40.0919 37.9115 42.155 37.841 44.2717C37.8341 44.6175 37.8582 44.9631 37.913 45.3046C37.9403 45.5535 37.9909 45.7992 38.064 46.0386C38.2657 46.9157 38.7975 47.6814 39.549 48.1766C40.0587 48.4473 40.6235 48.598 41.2003 48.6171C41.777 48.6361 42.3506 48.5231 42.877 48.2866C46.6 46.9456 50.0001 41.5307 50.0001 37.2457C49.9991 35.3097 49.3291 33.9437 48.2231 33.3117Z" fill="#EFF3FA"/>
<path fill-rule="evenodd" clip-rule="evenodd" d="M46.644 33.4035C45.7667 33.4392 44.9138 33.7025 44.169 34.1675C42.4649 35.2322 41.0587 36.7116 40.0819 38.4675C39.0115 40.2216 38.409 42.221 38.3319 44.2745C38.3332 44.5965 38.3573 44.9179 38.404 45.2365C38.4348 45.4644 38.4812 45.6899 38.5429 45.9115C38.7088 46.6702 39.166 47.3335 39.816 47.7585C40.2606 47.9864 40.7507 48.1112 41.2502 48.1237C41.7496 48.1362 42.2456 48.0359 42.701 47.8305C46.21 46.5655 49.5119 41.4305 49.5119 37.2495C49.5119 35.5585 48.968 34.3105 47.972 33.7405C47.5667 33.5131 47.1086 33.3975 46.644 33.4035ZM41.258 49.1125C40.4006 49.1357 39.5625 48.8553 38.8919 48.3206C38.2213 47.786 37.7612 47.0315 37.5929 46.1905C37.5094 45.9234 37.4488 45.6498 37.4119 45.3725C37.3629 45.0079 37.3388 44.6404 37.3399 44.2725C37.4537 42.0737 38.0878 39.9332 39.1897 38.027C40.2917 36.1208 41.8302 34.5034 43.6789 33.3075C45.4549 32.2785 47.1619 32.1225 48.4739 32.8815C49.7739 33.6365 50.5069 35.1885 50.5069 37.2465C50.5069 41.7805 46.8799 47.3725 43.0469 48.7465C42.4795 48.982 41.8723 49.1063 41.258 49.1125Z" fill="#035BE8"/>
<path fill-rule="evenodd" clip-rule="evenodd" d="M11.1909 51.4723C11.1039 51.471 11.0187 51.4474 10.9434 51.4038C10.8682 51.3602 10.8052 51.298 10.7608 51.2232C10.6957 51.1089 10.6783 50.9735 10.7124 50.8464C10.7464 50.7192 10.8292 50.6107 10.9428 50.5442L29.2539 39.9753C29.3098 39.9418 29.372 39.9198 29.4366 39.9109C29.5012 39.9019 29.567 39.906 29.63 39.923C29.693 39.94 29.752 39.9695 29.8033 40.0097C29.8547 40.05 29.8974 40.1002 29.9289 40.1573C29.9616 40.2135 29.9828 40.2756 29.9913 40.34C29.9998 40.4044 29.9955 40.4699 29.9786 40.5327C29.9617 40.5955 29.9324 40.6543 29.8927 40.7057C29.8529 40.7571 29.8034 40.8001 29.7469 40.8323L11.4469 51.4053C11.3679 51.4472 11.2803 51.4702 11.1909 51.4723Z" fill="#035BE8"/>
<path fill-rule="evenodd" clip-rule="evenodd" d="M11.1909 57.4314C11.1044 57.4301 11.0196 57.4069 10.9444 57.3641C10.8693 57.3213 10.8061 57.2602 10.7608 57.1864C10.6957 57.0721 10.6783 56.9366 10.7124 56.8095C10.7464 56.6824 10.8292 56.5739 10.9428 56.5074L29.2539 45.9344C29.3104 45.8959 29.3743 45.8694 29.4415 45.8565C29.5087 45.8437 29.5779 45.8448 29.6447 45.8598C29.7115 45.8747 29.7745 45.9033 29.8298 45.9436C29.8851 45.9839 29.9316 46.0352 29.9663 46.0941C30.001 46.1531 30.0232 46.2186 30.0316 46.2865C30.0399 46.3545 30.0343 46.4234 30.015 46.489C29.9956 46.5547 29.9629 46.6156 29.919 46.6682C29.8752 46.7207 29.821 46.7637 29.7598 46.7944L11.4449 57.3624C11.3676 57.4069 11.2801 57.4307 11.1909 57.4314Z" fill="#035BE8"/>
<path fill-rule="evenodd" clip-rule="evenodd" d="M46.6868 35.9707C46.2444 35.7663 45.7555 35.684 45.2705 35.7321C44.7856 35.7803 44.3223 35.9572 43.9287 36.2447C42.7829 36.9575 41.8358 37.9481 41.1748 39.1247L41.1618 39.1667C40.4546 40.3316 40.0583 41.6587 40.0108 43.0207C39.9851 43.6399 40.1264 44.2547 40.4198 44.8007V44.8087C41.0608 45.9087 42.3348 46.1247 43.7348 45.3867C44.9818 44.6741 46.0045 43.6266 46.6868 42.3627C47.3973 41.1976 47.7925 39.8677 47.8338 38.5037C47.8858 38.0176 47.8068 37.5264 47.6051 37.081C47.4035 36.6357 47.0864 36.2523 46.6868 35.9707Z" fill="#035BE8"/>
<path fill-rule="evenodd" clip-rule="evenodd" d="M11.1891 36.6613C11.1022 36.6599 11.017 36.6363 10.9417 36.5927C10.8664 36.5491 10.8036 36.4871 10.7591 36.4124C10.6952 36.2984 10.6786 36.1639 10.7126 36.0377C10.7466 35.9116 10.8286 35.8037 10.9411 35.7373L46.2812 15.3374C46.3369 15.3043 46.3986 15.2828 46.4628 15.274C46.527 15.2652 46.5923 15.2694 46.6548 15.2863C46.7174 15.3031 46.7759 15.3323 46.827 15.3722C46.878 15.4121 46.9205 15.4617 46.9521 15.5183C47.0173 15.6326 47.0349 15.7679 47.001 15.895C46.9671 16.0221 46.8846 16.1307 46.7712 16.1973L11.4432 36.5974C11.3646 36.6382 11.2776 36.6601 11.1891 36.6613Z" fill="#035BE8"/>
<path fill-rule="evenodd" clip-rule="evenodd" d="M3.45471 31.0777C3.869 30.42 4.42868 29.8661 5.0907 29.4587L52.6307 2.00869C52.8921 1.82374 53.1971 1.71014 53.5157 1.6791C53.8344 1.64806 54.1556 1.70065 54.4478 1.83168L52.4198 0.66274C52.1279 0.530713 51.8064 0.477566 51.4875 0.508626C51.1687 0.539685 50.8637 0.653805 50.6028 0.839681L3.06177 28.2857C2.40223 28.6984 1.84328 29.2532 1.42578 29.9097L3.45471 31.0777Z" fill="#EFF3FA"/>
<path fill-rule="evenodd" clip-rule="evenodd" d="M2.1495 29.7534L3.31356 30.4244C3.72431 29.8702 4.23677 29.3991 4.82357 29.0364L52.3765 1.57839C52.4905 1.51939 52.5995 1.46438 52.7265 1.40938L52.1705 1.09334C51.7315 0.893344 51.3986 0.983379 50.8376 1.27938L3.31454 28.7164C2.86685 28.9886 2.47248 29.34 2.1506 29.7534H2.1495ZM3.44955 31.5704C3.36144 31.5695 3.27472 31.5479 3.19649 31.5073L1.18453 30.3394C1.12335 30.3058 1.07021 30.2594 1.02877 30.2033C0.987327 30.1471 0.958583 30.0827 0.944542 30.0144C0.92436 29.9487 0.920408 29.8791 0.932945 29.8115C0.945482 29.744 0.974159 29.6804 1.01656 29.6264C1.47357 28.9181 2.07968 28.3181 2.79256 27.8684L50.3586 0.41036C50.6883 0.185954 51.0702 0.0502342 51.4676 0.0162562C51.865 -0.0177218 52.2645 0.0512165 52.6275 0.21639L54.6816 1.40139C54.7382 1.43172 54.7883 1.47292 54.8289 1.5226C54.8696 1.57229 54.9001 1.62947 54.9187 1.69094C54.9372 1.75241 54.9435 1.81698 54.9371 1.88088C54.9307 1.94478 54.9119 2.00678 54.8816 2.06338C54.8199 2.17628 54.7177 2.26164 54.5957 2.30227C54.4736 2.3429 54.3406 2.33579 54.2236 2.28237C53.7636 2.05937 53.4236 2.15235 52.8536 2.44735L5.3315 29.8884C4.73822 30.2644 4.2356 30.7671 3.85958 31.3604C3.81358 31.4253 3.75271 31.4783 3.68209 31.515C3.61148 31.5517 3.53316 31.571 3.45357 31.5714L3.44955 31.5704Z" fill="#035BE8"/>
</svg>

<svg xmlns="http://www.w3.org/2000/svg" width="56" height="74" fill="none" viewBox="0 0 56 74"><path fill="#035be8" fill-rule="evenodd" d="M.486 69.682a1.88 1.88 0 0 0 .755 1.662l2.028 1.168a1.82 1.82 0 0 1-.755-1.661V33.908a5.61 5.61 0 0 1 2.573-4.45l47.54-27.45a1.84 1.84 0 0 1 1.819-.176L52.417.662A1.83 1.83 0 0 0 50.6.84L3.06 28.286a5.65 5.65 0 0 0-2.574 4.453z" clip-rule="evenodd"/><path fill="#035be8" fill-rule="evenodd" d="M.992 69.67c.03.636.114.97.531 1.264l.52.3c0-.122-.018-.24-.018-.363V33.907a6.13 6.13 0 0 1 2.8-4.87L52.378 1.577a5 5 0 0 1 .35-.169l-.556-.316c-.439-.2-.772-.11-1.333.186L3.316 28.716A5.12 5.12 0 0 0 .993 32.76zm2.281 3.34a.5.5 0 0 1-.253-.068L.992 71.77a2.33 2.33 0 0 1-.99-2.067V32.74a6.1 6.1 0 0 1 2.8-4.87L50.366.41a2.32 2.32 0 0 1 2.27-.194l2.052 1.185a.5.5 0 0 1 .237.29q.028.093.019.19a.49.49 0 0 1-.342.421.5.5 0 0 1-.372-.02c-.459-.223-.8-.13-1.37.165L5.338 29.888a5.14 5.14 0 0 0-2.323 4.04V70.85c.042.62.122.957.544 1.256a.495.495 0 0 1-.278.9z" clip-rule="evenodd"/><path fill="#fff" fill-rule="evenodd" d="M52.728 44.822a5.4 5.4 0 0 0 1.72-1.853c.46-.767.716-1.64.743-2.534V3.493a1.56 1.56 0 0 0-2.56-1.485l-47.54 27.45a5.2 5.2 0 0 0-1.818 1.914 5.27 5.27 0 0 0-.755 2.53v36.942A1.569 1.569 0 0 0 5.09 72.33z" clip-rule="evenodd"/><path fill="#035be8" fill-rule="evenodd" d="M3.72 31.599c-.013.008-.013.017-.03.029a4.85 4.85 0 0 0-.683 2.28v36.944a1.37 1.37 0 0 0 .514 1.231 1.36 1.36 0 0 0 1.316-.177l47.637-27.509a4.8 4.8 0 0 0 1.54-1.673 4.7 4.7 0 0 0 .687-2.29V3.49a1.086 1.086 0 0 0-1.818-1.054L5.331 29.89a4.8 4.8 0 0 0-1.61 1.708m.223 41.585a1.8 1.8 0 0 1-.924-.24 2.29 2.29 0 0 1-.995-2.091V33.909c.03-.97.305-1.916.8-2.75 0-.014.017-.025.017-.034a5.8 5.8 0 0 1 2-2.1l47.54-27.45a2.059 2.059 0 0 1 3.32 1.914v36.938a5.7 5.7 0 0 1-.828 2.779 5.8 5.8 0 0 1-1.877 2.033s-.012 0-.012.008L5.334 72.755c-.417.263-.897.411-1.39.429" clip-rule="evenodd"/><path fill="#eff3fa" fill-rule="evenodd" d="M48.223 33.312c-1.1-.637-2.619-.544-4.309.426a12.46 12.46 0 0 0-4.268 4.475l-.026.067a12.4 12.4 0 0 0-1.779 5.992 6 6 0 0 0 .072 1.033q.041.373.151.734a3.5 3.5 0 0 0 1.485 2.138 3.79 3.79 0 0 0 3.328.11C46.6 46.946 50 41.53 50 37.246c0-1.936-.67-3.302-1.777-3.934" clip-rule="evenodd"/><path fill="#035be8" fill-rule="evenodd" d="M46.644 33.404a5.06 5.06 0 0 0-2.475.763 11.9 11.9 0 0 0-4.087 4.3 12 12 0 0 0-1.75 5.808q.002.483.072.962.046.341.139.674a2.96 2.96 0 0 0 1.273 1.847 3.33 3.33 0 0 0 2.885.072c3.509-1.264 6.81-6.4 6.81-10.58 0-1.691-.543-2.94-1.539-3.51a2.64 2.64 0 0 0-1.328-.337m-5.386 15.708a3.64 3.64 0 0 1-3.665-2.922 5 5 0 0 1-.181-.817 8 8 0 0 1-.072-1.1 13.92 13.92 0 0 1 6.339-10.966c1.776-1.029 3.483-1.184 4.795-.425 1.3.755 2.033 2.307 2.033 4.365 0 4.534-3.627 10.126-7.46 11.5a4.8 4.8 0 0 1-1.789.365M11.19 51.472a.51.51 0 0 1-.43-.249.5.5 0 0 1 .183-.679l18.31-10.569a.484.484 0 0 1 .676.182.49.49 0 0 1-.182.675l-18.3 10.573a.6.6 0 0 1-.256.067M11.19 57.431a.51.51 0 0 1-.43-.245.5.5 0 0 1 .183-.679l18.31-10.573a.5.5 0 1 1 .507.86L11.445 57.362a.5.5 0 0 1-.254.07" clip-rule="evenodd"/><path fill="#035be8" fill-rule="evenodd" d="M46.687 35.97a2.73 2.73 0 0 0-2.758.275 8 8 0 0 0-2.754 2.88l-.013.042a7.96 7.96 0 0 0-1.151 3.854c-.026.619.115 1.234.409 1.78v.008c.64 1.1 1.915 1.316 3.315.578a7.7 7.7 0 0 0 2.952-3.024 7.87 7.87 0 0 0 1.147-3.86 2.74 2.74 0 0 0-1.147-2.532M11.19 36.661a.51.51 0 0 1-.43-.249.5.5 0 0 1 .181-.675l35.34-20.4a.484.484 0 0 1 .671.181.5.5 0 0 1-.18.68l-35.329 20.4a.6.6 0 0 1-.254.063" clip-rule="evenodd"/><path fill="#eff3fa" fill-rule="evenodd" d="M3.455 31.078a5.1 5.1 0 0 1 1.636-1.62l47.54-27.45a1.84 1.84 0 0 1 1.817-.176L52.42.662a1.83 1.83 0 0 0-1.817.178L3.062 28.286a5.2 5.2 0 0 0-1.636 1.624z" clip-rule="evenodd"/><path fill="#035be8" fill-rule="evenodd" d="m2.15 29.753 1.164.671a5.4 5.4 0 0 1 1.51-1.388L52.377 1.578a5 5 0 0 1 .35-.169l-.556-.316c-.44-.2-.772-.11-1.333.186L3.315 28.716a4.3 4.3 0 0 0-1.164 1.037zm1.3 1.817a.56.56 0 0 1-.254-.063L1.185 30.34a.48.48 0 0 1-.24-.325.43.43 0 0 1 .072-.388 5.8 5.8 0 0 1 1.776-1.758L50.359.41a2.32 2.32 0 0 1 2.268-.194l2.055 1.185a.49.49 0 0 1 .2.662.51.51 0 0 1-.658.22c-.46-.224-.8-.13-1.37.164L5.332 29.888A4.76 4.76 0 0 0 3.86 31.36a.5.5 0 0 1-.406.211z" clip-rule="evenodd"/></svg>
